public/src/images/icons/toggle.svg

<svg width="12" height="16" viewBox="0 0 12 16" fill="none" xmlns="http://www.w3.org/2000/svg">
<path fill-rule="evenodd" clip-rule="evenodd" d="M6.27346 6.28388V4.29263C4.07672 4.29263 2.29145 6.07811 2.29145 8.27513C2.29145 8.94551 2.45737 9.58271 2.75602 10.1336L1.78706 11.1027C1.2694 10.2863 0.964111 9.31721 0.964111 8.27513C0.964111 5.34135 3.34005 2.96513 6.27346 2.96513V0.973877L8.92814 3.62888L6.27346 6.28388ZM9.79091 6.41663L10.7599 5.44755C11.2775 6.26396 11.5828 7.23304 11.5828 8.27513C11.5828 11.2089 9.20688 13.5851 6.27346 13.5851V15.5764L3.61879 12.9214L6.27346 10.2664V12.2576C8.47021 12.2576 10.2555 10.4721 10.2555 8.27513C10.2555 7.60474 10.0829 6.97418 9.79091 6.41663Z" fill="#582EFE"/>
</svg>

<svg width="12" height="16" fill="none" xmlns="http://www.w3.org/2000/svg"><path fill-rule="evenodd" clip-rule="evenodd" d="M6.273 6.284V4.293a3.985 3.985 0 00-3.982 3.982c0 .67.166 1.308.465 1.859l-.969.969a5.265 5.265 0 01-.823-2.828 5.308 5.308 0 015.31-5.31V.974l2.654 2.655-2.655 2.655zm3.518.133l.969-.97c.518.817.823 1.786.823 2.828a5.308 5.308 0 01-5.31 5.31v1.991L3.62 12.921l2.654-2.655v1.992a3.985 3.985 0 003.982-3.983c0-.67-.172-1.3-.464-1.858z" fill="#582EFE"/></svg>
